symbols/web/local_cafe/materialsymbolsoutlined/local_cafe_wght700gradN25fill1_48px.svg

<svg xmlns="http://www.w3.org/2000/svg" height="48" width="48"><path d="M5.95 43.6v-4.65h32.7v4.65Zm8.65-7.1q-3.6 0-6.125-2.5T5.95 27.95V4.4h34.5q1.9 0 3.275 1.35T45.1 9v8q0 1.9-1.375 3.225-1.375 1.325-3.275 1.325H36.3v6.4q0 3.55-2.575 6.05t-6.175 2.5ZM36.3 17h4.15V9H36.3Z"/></svg>

<svg xmlns="http://www.w3.org/2000/svg" height="48" width="48"><path d="M5.95 43.6V38.95H38.65V43.6ZM14.6 36.5Q11 36.5 8.475 34Q5.95 31.5 5.95 27.95V4.4H40.45Q42.35 4.4 43.725 5.75Q45.1 7.1 45.1 9V17Q45.1 18.9 43.725 20.225Q42.35 21.55 40.45 21.55H36.3V27.95Q36.3 31.5 33.725 34Q31.15 36.5 27.55 36.5ZM36.3 17H40.45Q40.45 17 40.45 17Q40.45 17 40.45 17V9Q40.45 9 40.45 9Q40.45 9 40.45 9H36.3Z"/></svg>
